build/img/my-comfort-plus-wrong-5.svg

<svg width="159" height="40" viewBox="0 0 159 40" fill="none" xmlns="http://www.w3.org/2000/svg">
<g clip-path="url(#clip0)">
<path d="M46.8813 0.65654C49.5458 0.61181 52.1929 1.09329 54.6694 2.07314C57.1459 3.05299 59.4026 4.51178 61.3092 6.36514C63.1497 8.15354 64.6226 10.2817 65.6456 12.6307C66.6992 15.0602 67.2302 17.6823 67.2043 20.3283C67.2326 22.9746 66.7015 25.5972 65.6456 28.026C64.6236 30.3841 63.1444 32.5185 61.2928 34.3069C59.4411 36.0954 57.2533 37.5028 54.8546 38.4487C52.3254 39.5065 49.6045 40.0346 46.8613 40.0002H31.7539V0.65654H46.8813ZM51.957 31.6262C53.4075 31.0391 54.7156 30.1508 55.7938 29.0205C56.8602 27.8624 57.6945 26.5122 58.2518 25.0424C58.8516 23.5226 59.1502 21.9015 59.131 20.2687C59.1504 18.6229 58.8519 16.9888 58.2518 15.4551C57.6876 14.0185 56.8534 12.7021 55.7938 11.5765C54.7022 10.4621 53.3976 9.57613 51.957 8.97081C50.3472 8.30818 48.6233 7.96364 46.8813 7.95639H39.8272V32.6207H46.8813C48.6257 32.6608 50.358 32.3214 51.957 31.6262Z" fill="#231F20"/>
<path d="M11.99 0C9.61859 0 7.30045 0.699938 5.32871 2.0113C3.35697 3.32267 1.82018 5.18656 0.912688 7.36728C0.00519509 9.548 -0.232246 11.9476 0.230389 14.2626C0.693025 16.5777 1.83496 18.7042 3.51179 20.3732C5.18862 22.0423 7.32503 23.1789 9.65086 23.6394C11.9767 24.0999 14.3875 23.8636 16.5784 22.9603C18.7692 22.057 20.6418 20.5273 21.9593 18.5647C23.2768 16.6021 23.98 14.2948 23.98 11.9344C23.98 8.76917 22.7167 5.73362 20.4682 3.49549C18.2196 1.25737 15.1699 0 11.99 0V0ZM11.99 16.9468C11.0168 16.931 10.0698 16.6304 9.26719 16.0824C8.46457 15.5344 7.84183 14.7632 7.47669 13.8652C7.11154 12.9671 7.02015 11.982 7.21391 11.0326C7.40767 10.0832 7.87802 9.21155 8.56625 8.52651C9.25449 7.84147 10.1301 7.37331 11.084 7.18044C12.0378 6.98758 13.0276 7.07855 13.9298 7.442C14.832 7.80545 15.6068 8.4253 16.1573 9.2242C16.7079 10.0231 17.0099 10.9657 17.0258 11.9344C17.0366 12.5956 16.9137 13.2522 16.6645 13.8652C16.4152 14.4782 16.0447 15.035 15.5749 15.5026C15.1051 15.9702 14.5457 16.3391 13.9298 16.5872C13.314 16.8352 12.6543 16.9575 11.99 16.9468Z" fill="#231F20"/>
<path d="M82.5509 13.859V23.4861H80.9922V12.4468H83.61L86.4476 21.6561L89.2853 12.4468H91.9031V23.4861H90.3244V13.859L87.267 23.4861H85.6083L82.5509 13.859Z" fill="#231F20"/>
<path d="M94.1413 17.9564C94.0628 17.2293 94.1389 16.4938 94.3647 15.7979C94.5906 15.1019 94.961 14.4611 95.452 13.917C95.943 13.373 96.5436 12.9379 97.2146 12.64C97.8857 12.3422 98.6122 12.1882 99.3469 12.1882C100.082 12.1882 100.808 12.3422 101.479 12.64C102.15 12.9379 102.751 13.373 103.242 13.917C103.733 14.4611 104.103 15.1019 104.329 15.7979C104.555 16.4938 104.631 17.2293 104.553 17.9564C104.631 18.6836 104.555 19.419 104.329 20.115C104.103 20.8109 103.733 21.4517 103.242 21.9958C102.751 22.5399 102.15 22.975 101.479 23.2728C100.808 23.5707 100.082 23.7246 99.3469 23.7246C98.6122 23.7246 97.8857 23.5707 97.2146 23.2728C96.5436 22.975 95.943 22.5399 95.452 21.9958C94.961 21.4517 94.5906 20.8109 94.3647 20.115C94.1389 19.419 94.0628 18.6836 94.1413 17.9564ZM102.974 17.9564C102.974 15.1121 101.375 13.5606 99.3569 13.5606C97.3386 13.5606 95.74 15.1121 95.74 17.9564C95.74 20.8008 97.3386 22.392 99.3569 22.392C101.375 22.392 102.974 20.8207 102.974 17.9564Z" fill="#231F20"/>
<path d="M108.369 23.4858H106.811V12.4465H108.369V21.2581L114.364 12.4863H115.903V23.4858H114.344V14.7141L108.369 23.4858ZM111.387 11.8299C109.628 11.8299 108.769 11.0343 108.609 10H109.788C109.788 10.5768 110.447 10.8951 111.407 10.8951C112.366 10.8951 112.925 10.5569 113.045 10H114.224C114.104 11.0343 113.205 11.8299 111.387 11.8299Z" fill="#231F20"/>
<path d="M82.5509 34.4656V39.4979H80.9922V28.4387H82.5509V33.1329H83.67L87.4069 28.4387H89.2853L85.0089 33.6699L89.4452 39.4979H87.5867L83.7099 34.4656H82.5509Z" fill="#231F20"/>
<path d="M89.9245 33.9686C89.846 33.2415 89.9221 32.506 90.148 31.8101C90.3738 31.1141 90.7442 30.4733 91.2352 29.9292C91.7262 29.3852 92.3268 28.9501 92.9978 28.6522C93.6689 28.3544 94.3954 28.2004 95.1301 28.2004C95.8649 28.2004 96.5914 28.3544 97.2625 28.6522C97.9335 28.9501 98.5341 29.3852 99.0251 29.9292C99.5161 30.4733 99.8865 31.1141 100.112 31.8101C100.338 32.506 100.414 33.2415 100.336 33.9686C100.414 34.6958 100.338 35.4312 100.112 36.1272C99.8865 36.8231 99.5161 37.464 99.0251 38.008C98.5341 38.5521 97.9335 38.9872 97.2625 39.285C96.5914 39.5829 95.8649 39.7368 95.1301 39.7368C94.3954 39.7368 93.6689 39.5829 92.9978 39.285C92.3268 38.9872 91.7262 38.5521 91.2352 38.008C90.7442 37.464 90.3738 36.8231 90.148 36.1272C89.9221 35.4312 89.846 34.6958 89.9245 33.9686ZM98.7371 33.9686C98.7371 31.1044 97.1584 29.5529 95.1401 29.5529C93.1218 29.5529 91.5232 31.1044 91.5232 33.9686C91.5232 36.8329 93.1018 38.3843 95.1401 38.3843C97.1784 38.3843 98.7371 36.813 98.7371 33.9686Z" fill="#231F20"/>
<path d="M104.072 29.8708V39.4979H102.514V28.4387H105.131L107.969 37.6481L110.787 28.4387H113.405V39.4979H111.846V29.8708L108.788 39.4979H107.13L104.072 29.8708Z" fill="#231F20"/>
<path d="M126.934 33.9686C126.938 34.6022 126.811 35.2299 126.56 35.8125C126.31 36.3951 125.942 36.9201 125.479 37.3549C125.016 37.7897 124.468 38.1249 123.869 38.3397C123.27 38.5544 122.633 38.6441 121.998 38.6031V39.896H120.419V38.6031C119.168 38.6031 117.969 38.1085 117.084 37.2282C116.2 36.3479 115.703 35.1539 115.703 33.9089C115.703 32.6639 116.2 31.47 117.084 30.5896C117.969 29.7093 119.168 29.2147 120.419 29.2147V27.8423H121.998V29.2147C122.642 29.1789 123.287 29.2761 123.891 29.5002C124.496 29.7243 125.047 30.0705 125.511 30.517C125.974 30.9635 126.34 31.5006 126.585 32.0946C126.83 32.6886 126.949 33.3267 126.934 33.9686ZM117.062 33.9686C117.048 34.4129 117.126 34.8554 117.289 35.2692C117.452 35.6829 117.698 36.0593 118.012 36.3755C118.326 36.6917 118.702 36.9412 119.115 37.1087C119.529 37.2762 119.973 37.3583 120.419 37.35V30.5076C119.968 30.4961 119.52 30.5774 119.102 30.7463C118.684 30.9152 118.306 31.1682 117.991 31.4893C117.676 31.8104 117.431 32.1928 117.271 32.6126C117.111 33.0324 117.04 33.4804 117.062 33.9288V33.9686ZM125.335 33.9288C125.354 33.4829 125.282 33.0378 125.122 32.6207C124.962 32.2036 124.719 31.8233 124.406 31.5031C124.094 31.1829 123.719 30.9294 123.305 30.7582C122.891 30.5871 122.446 30.5018 121.998 30.5076V37.3102C122.444 37.3186 122.886 37.2365 123.299 37.0687C123.712 36.901 124.086 36.6512 124.398 36.3347C124.71 36.0182 124.955 35.6416 125.116 35.2279C125.277 34.8142 125.351 34.3722 125.335 33.9288Z" fill="#231F20"/>
<path d="M128.372 33.9686C128.293 33.2415 128.369 32.506 128.595 31.8101C128.821 31.1141 129.192 30.4733 129.683 29.9292C130.174 29.3852 130.774 28.9501 131.445 28.6522C132.116 28.3544 132.843 28.2004 133.577 28.2004C134.312 28.2004 135.039 28.3544 135.71 28.6522C136.381 28.9501 136.981 29.3852 137.472 29.9292C137.963 30.4733 138.334 31.1141 138.56 31.8101C138.785 32.506 138.862 33.2415 138.783 33.9686C138.862 34.6958 138.785 35.4312 138.56 36.1272C138.334 36.8231 137.963 37.464 137.472 38.008C136.981 38.5521 136.381 38.9872 135.71 39.285C135.039 39.5829 134.312 39.7368 133.577 39.7368C132.843 39.7368 132.116 39.5829 131.445 39.285C130.774 38.9872 130.174 38.5521 129.683 38.008C129.192 37.464 128.821 36.8231 128.595 36.1272C128.369 35.4312 128.293 34.6958 128.372 33.9686ZM137.204 33.9686C137.204 31.1044 135.606 29.5529 133.587 29.5529C131.569 29.5529 129.891 31.2038 129.891 33.9686C129.891 36.7334 131.489 38.3843 133.507 38.3843C135.526 38.3843 137.124 36.813 137.124 33.9686" fill="#231F20"/>
<path d="M149.136 31.7803C149.136 34.5252 147.238 35.122 144.52 35.122H142.522V39.4979H140.963V28.4387H144.44C147.158 28.4387 149.056 29.0553 149.056 31.7803H149.136ZM142.522 33.7694H144.52C146.139 33.7694 147.417 33.5904 147.417 31.7803C147.417 29.9703 146.139 29.7913 144.52 29.7913H142.522V33.7694Z" fill="#231F20"/>
<path d="M149.355 29.7913V28.4387H158.148V29.7913H154.531V39.4979H152.972V29.7913H149.355Z" fill="#231F20"/>
</g>
<defs>
<clipPath id="clip0">
<rect width="159" height="40" fill="white"/>
</clipPath>
</defs>
</svg>

<svg width="159" height="40" viewBox="0 0 159 40" fill="none" xmlns="http://www.w3.org/2000/svg"><g clip-path="url(#clip0)" fill="#231F20"><path d="M46.881.657a20.247 20.247 0 017.788 1.416 20.173 20.173 0 016.64 4.292 19.71 19.71 0 014.337 6.266 18.881 18.881 0 011.558 7.697 18.801 18.801 0 01-1.558 7.698 19.531 19.531 0 01-4.353 6.28 19.634 19.634 0 01-6.438 4.143A20.066 20.066 0 0146.86 40H31.754V.657H46.88zm5.076 30.97a11.012 11.012 0 003.837-2.607 12.323 12.323 0 002.458-3.978c.6-1.52.898-3.14.879-4.773.02-1.646-.28-3.28-.88-4.814a12.126 12.126 0 00-2.457-3.879 11.733 11.733 0 00-3.837-2.605 13.483 13.483 0 00-5.076-1.015h-7.054v24.665h7.054c1.745.04 3.477-.3 5.076-.995zM11.99 0C9.619 0 7.3.7 5.329 2.011A11.947 11.947 0 00.913 7.367a11.883 11.883 0 00-.683 6.896 11.917 11.917 0 003.282 6.11A12.007 12.007 0 009.65 23.64c2.326.46 4.736.225 6.927-.679a11.979 11.979 0 005.381-4.395 11.895 11.895 0 00-1.49-15.07A12.019 12.019 0 0011.99 0zm0 16.947a4.972 4.972 0 01-2.723-.865 4.937 4.937 0 01-1.79-2.217 4.911 4.911 0 011.09-5.338 4.977 4.977 0 015.364-1.085 4.951 4.951 0 012.226 1.782 4.918 4.918 0 01-.582 6.279 4.958 4.958 0 01-3.585 1.444zm70.56-3.088v9.627h-1.558v-11.04h2.618l2.838 9.21 2.837-9.21h2.618v11.04h-1.579V13.86l-3.057 9.627h-1.659l-3.057-9.627zm11.591 4.097a5.189 5.189 0 011.311-4.039 5.236 5.236 0 013.895-1.729 5.255 5.255 0 013.895 1.729 5.207 5.207 0 011.311 4.04 5.194 5.194 0 01-1.311 4.039 5.235 5.235 0 01-3.895 1.729 5.256 5.256 0 01-3.895-1.73 5.207 5.207 0 01-1.31-4.039zm8.833 0c0-2.844-1.599-4.395-3.617-4.395s-3.617 1.551-3.617 4.395c0 2.845 1.599 4.436 3.617 4.436s3.617-1.571 3.617-4.436zm5.395 5.53h-1.558v-11.04h1.558v8.812l5.995-8.772h1.539v11h-1.559v-8.772l-5.975 8.772zm3.018-11.656c-1.759 0-2.618-.796-2.778-1.83h1.179c0 .577.659.895 1.619.895.959 0 1.518-.338 1.638-.895h1.179c-.12 1.034-1.019 1.83-2.837 1.83zM82.55 34.466v5.032h-1.558v-11.06h1.559v4.695h1.119l3.737-4.694h1.878l-4.276 5.23 4.436 5.829h-1.858l-3.877-5.032h-1.16zm7.374-.497a5.187 5.187 0 011.311-4.04A5.236 5.236 0 0195.13 28.2a5.258 5.258 0 013.895 1.73 5.2 5.2 0 011.311 4.039 5.194 5.194 0 01-1.31 4.039 5.234 5.234 0 01-3.896 1.729 5.256 5.256 0 01-3.895-1.729 5.205 5.205 0 01-1.31-4.04zm8.813 0c0-2.865-1.579-4.416-3.597-4.416s-3.617 1.551-3.617 4.416c0 2.864 1.579 4.415 3.617 4.415 2.038 0 3.597-1.571 3.597-4.415zm5.335-4.099v9.628h-1.558v-11.06h2.617l2.838 9.21 2.818-9.21h2.618v11.06h-1.559V29.87l-3.058 9.627h-1.658l-3.058-9.627zm22.862 4.099a4.61 4.61 0 01-1.455 3.386 4.64 4.64 0 01-3.481 1.248v1.293h-1.579v-1.293a4.729 4.729 0 01-3.335-1.375 4.685 4.685 0 01-1.381-3.32c0-1.244.497-2.438 1.381-3.318a4.729 4.729 0 013.335-1.375v-1.373h1.579v1.373a4.695 4.695 0 013.513 1.302c.463.447.829.984 1.074 1.578a4.63 4.63 0 01.349 1.874zm-9.872 0a3.269 3.269 0 00.95 2.407 3.307 3.307 0 002.407.974v-6.842a3.29 3.29 0 00-2.428.981 3.264 3.264 0 00-.929 2.44v.04zm8.273-.04a3.263 3.263 0 00-.929-2.426 3.296 3.296 0 00-2.408-.995v6.802a3.29 3.29 0 002.4-.975 3.264 3.264 0 00.937-2.406zm3.037.04a5.177 5.177 0 011.311-4.04 5.234 5.234 0 013.894-1.729 5.234 5.234 0 014.983 3.61c.225.696.302 1.431.223 2.159a5.194 5.194 0 01-1.311 4.039 5.231 5.231 0 01-3.895 1.729 5.257 5.257 0 01-3.894-1.729 5.178 5.178 0 01-1.311-4.04zm8.832 0c0-2.865-1.598-4.416-3.617-4.416-2.018 0-3.696 1.65-3.696 4.416 0 2.764 1.598 4.415 3.616 4.415 2.019 0 3.617-1.571 3.617-4.415m12.012-2.189c0 2.745-1.898 3.342-4.616 3.342h-1.998v4.376h-1.559v-11.06h3.477c2.718 0 4.616.617 4.616 3.342h.08zm-6.614 1.99h1.998c1.619 0 2.897-.18 2.897-1.99s-1.278-1.989-2.897-1.989h-1.998v3.978zm6.833-3.979V28.44h8.793v1.352h-3.617v9.707h-1.559V29.79h-3.617z"/></g><defs><clipPath id="clip0"><path fill="#fff" d="M0 0h159v40H0z"/></clipPath></defs></svg>
